symbols/web/speed/materialsymbolsrounded/speed_wght200grad200_48px.svg

<svg xmlns="http://www.w3.org/2000/svg" height="48" width="48"><path d="M21.25 30.75q.9.95 2.525.85 1.625-.1 2.375-1.2l7.7-10.95q.45-.55-.1-1.075-.55-.525-1.1-.125l-10.95 7.7q-1.15.75-1.25 2.35-.1 1.6.8 2.45ZM9.8 38.6q-.55 0-1.1-.325t-.8-.875q-1.1-1.8-1.8-4.1t-.7-5.15q0-3.85 1.45-7.25t3.975-5.95q2.525-2.55 5.925-4.05T24 9.4q2.25 0 4.225.475Q30.2 10.35 32.2 11.4q.85.35.925.95.075.6-.475 1-.25.2-.6.25-.35.05-.65-.2-1.75-.9-3.625-1.35Q25.9 11.6 24 11.6q-6.8 0-11.6 4.825T7.6 28.15q0 2.2.55 4.3.55 2.1 1.7 3.95h28.3q1-1.8 1.625-3.975T40.4 28q0-1.65-.375-3.625T38.7 20.65q-.2-.35-.175-.65.025-.3.275-.55.45-.35.975-.3.525.05.825.6 1.05 2.2 1.525 4.175.475 1.975.475 3.975 0 2.7-.6 5.05-.6 2.35-1.9 4.6-.3.6-.75.825-.45.225-1.2.225ZM24 24Z"/></svg>

<svg xmlns="http://www.w3.org/2000/svg" height="48" width="48"><path d="M21.25 30.75Q22.15 31.7 23.775 31.6Q25.4 31.5 26.15 30.4L33.85 19.45Q34.3 18.9 33.75 18.375Q33.2 17.85 32.65 18.25L21.7 25.95Q20.55 26.7 20.45 28.3Q20.35 29.9 21.25 30.75ZM9.8 38.6Q9.25 38.6 8.7 38.275Q8.15 37.95 7.9 37.4Q6.8 35.6 6.1 33.3Q5.4 31 5.4 28.15Q5.4 24.3 6.85 20.9Q8.3 17.5 10.825 14.95Q13.35 12.4 16.75 10.9Q20.15 9.4 24 9.4Q26.25 9.4 28.225 9.875Q30.2 10.35 32.2 11.4Q33.05 11.75 33.125 12.35Q33.2 12.95 32.65 13.35Q32.4 13.55 32.05 13.6Q31.7 13.65 31.4 13.4Q29.65 12.5 27.775 12.05Q25.9 11.6 24 11.6Q17.2 11.6 12.4 16.425Q7.6 21.25 7.6 28.15Q7.6 30.35 8.15 32.45Q8.7 34.55 9.85 36.4H38.15Q39.15 34.6 39.775 32.425Q40.4 30.25 40.4 28Q40.4 26.35 40.025 24.375Q39.65 22.4 38.7 20.65Q38.5 20.3 38.525 20Q38.55 19.7 38.8 19.45Q39.25 19.1 39.775 19.15Q40.3 19.2 40.6 19.75Q41.65 21.95 42.125 23.925Q42.6 25.9 42.6 27.9Q42.6 30.6 42 32.95Q41.4 35.3 40.1 37.55Q39.8 38.15 39.35 38.375Q38.9 38.6 38.15 38.6ZM24 24Q24 24 24 24Q24 24 24 24Q24 24 24 24Q24 24 24 24Q24 24 24 24Q24 24 24 24Q24 24 24 24Q24 24 24 24Q24 24 24 24Q24 24 24 24Q24 24 24 24Q24 24 24 24Q24 24 24 24Q24 24 24 24Q24 24 24 24Q24 24 24 24Q24 24 24 24Q24 24 24 24Q24 24 24 24Q24 24 24 24Z"/></svg>
